flaticon/business/safebox-1.svg

<svg xmlns="http://www.w3.org/2000/svg" width="32" height="32" viewBox="0 0 24 24">
    <path d="M 24 1.601562 L 0 1.601562 L 0 20.800781 L 0.800781 20.800781 L 0.800781 22.398438 L 4.800781 22.398438 L 4.800781 20.800781 L 19.199219 20.800781 L 19.199219 22.398438 L 23.199219 22.398438 L 23.199219 20.800781 L 24 20.800781 Z M 4 21.601562 L 1.601562 21.601562 L 1.601562 20.800781 L 4 20.800781 Z M 22.398438 21.601562 L 20 21.601562 L 20 20.800781 L 22.398438 20.800781 Z M 23.199219 20 L 0.800781 20 L 0.800781 2.398438 L 23.199219 2.398438 Z M 23.199219 20"/>
    <path d="M 2.402344 19.199219 L 21.597656 19.199219 C 22.039062 19.199219 22.398438 18.839844 22.398438 18.398438 L 22.398438 17.199219 C 22.621094 17.199219 22.800781 17.019531 22.800781 16.800781 C 22.800781 16.578125 22.621094 16.398438 22.398438 16.398438 L 22.398438 16 C 22.621094 16 22.800781 15.820312 22.800781 15.601562 C 22.800781 15.378906 22.621094 15.199219 22.398438 15.199219 L 22.398438 7.199219 C 22.621094 7.199219 22.800781 7.019531 22.800781 6.800781 C 22.800781 6.578125 22.621094 6.398438 22.398438 6.398438 L 22.398438 6 C 22.621094 6 22.800781 5.820312 22.800781 5.601562 C 22.800781 5.378906 22.621094 5.199219 22.398438 5.199219 L 22.398438 4.003906 C 22.398438 3.558594 22.039062 3.199219 21.597656 3.199219 L 2.402344 3.199219 C 1.960938 3.199219 1.601562 3.558594 1.601562 4.003906 L 1.601562 18.398438 C 1.601562 18.839844 1.960938 19.199219 2.402344 19.199219 Z M 2.402344 4 L 21.601562 4.003906 L 21.601562 5.199219 L 21.199219 5.199219 C 20.980469 5.199219 20.800781 5.378906 20.800781 5.601562 C 20.800781 5.820312 20.980469 6 21.199219 6 L 21.597656 6 L 21.597656 6.398438 L 21.199219 6.398438 C 20.980469 6.398438 20.800781 6.578125 20.800781 6.800781 C 20.800781 7.019531 20.980469 7.199219 21.199219 7.199219 L 21.597656 7.199219 L 21.597656 15.199219 L 21.199219 15.199219 C 20.980469 15.199219 20.800781 15.378906 20.800781 15.601562 C 20.800781 15.820312 20.980469 16 21.199219 16 L 21.597656 16 L 21.597656 16.398438 L 21.199219 16.398438 C 20.980469 16.398438 20.800781 16.578125 20.800781 16.800781 C 20.800781 17.019531 20.980469 17.199219 21.199219 17.199219 L 21.597656 17.199219 L 21.597656 18.398438 L 2.398438 18.398438 Z M 2.402344 4"/>
    <path d="M 18.203125 7.816406 C 18.199219 7.8125 18.199219 7.808594 18.195312 7.804688 C 18.191406 7.800781 18.1875 7.800781 18.183594 7.796875 C 17.3125 6.933594 16.117188 6.398438 14.800781 6.398438 C 13.480469 6.398438 12.285156 6.933594 11.417969 7.796875 C 11.414062 7.800781 11.410156 7.800781 11.40625 7.804688 C 11.402344 7.808594 11.402344 7.8125 11.398438 7.816406 C 10.535156 8.6875 10 9.882812 10 11.199219 C 10 12.519531 10.535156 13.714844 11.398438 14.582031 C 11.402344 14.585938 11.402344 14.589844 11.40625 14.59375 C 11.410156 14.597656 11.414062 14.597656 11.417969 14.601562 C 12.285156 15.464844 13.480469 16 14.800781 16 C 16.117188 16 17.3125 15.464844 18.183594 14.601562 C 18.1875 14.597656 18.191406 14.597656 18.195312 14.59375 C 18.199219 14.589844 18.199219 14.585938 18.203125 14.582031 C 19.066406 13.714844 19.601562 12.519531 19.601562 11.199219 C 19.601562 9.882812 19.066406 8.6875 18.203125 7.816406 Z M 18.398438 11.601562 L 18.78125 11.601562 C 18.699219 12.402344 18.378906 13.136719 17.894531 13.730469 L 17.628906 13.460938 C 17.472656 13.304688 17.21875 13.304688 17.0625 13.460938 C 16.90625 13.621094 16.90625 13.871094 17.0625 14.027344 L 17.328125 14.296875 C 16.738281 14.78125 16.003906 15.097656 15.199219 15.179688 L 15.199219 14.800781 C 15.199219 14.578125 15.019531 14.398438 14.800781 14.398438 C 14.578125 14.398438 14.398438 14.578125 14.398438 14.800781 L 14.398438 15.179688 C 13.597656 15.097656 12.863281 14.78125 12.269531 14.296875 L 12.539062 14.027344 C 12.695312 13.871094 12.695312 13.621094 12.539062 13.460938 C 12.378906 13.304688 12.128906 13.304688 11.972656 13.460938 L 11.703125 13.730469 C 11.21875 13.136719 10.902344 12.402344 10.820312 11.601562 L 11.199219 11.601562 C 11.421875 11.601562 11.601562 11.421875 11.601562 11.199219 C 11.601562 10.980469 11.421875 10.800781 11.199219 10.800781 L 10.820312 10.800781 C 10.902344 9.996094 11.21875 9.261719 11.703125 8.671875 L 11.972656 8.9375 C 12.050781 9.015625 12.152344 9.054688 12.253906 9.054688 C 12.355469 9.054688 12.460938 9.015625 12.539062 8.9375 C 12.695312 8.78125 12.695312 8.527344 12.539062 8.371094 L 12.269531 8.105469 C 12.863281 7.621094 13.597656 7.300781 14.398438 7.21875 L 14.398438 7.601562 C 14.398438 7.820312 14.578125 8 14.800781 8 C 15.019531 8 15.199219 7.820312 15.199219 7.601562 L 15.199219 7.21875 C 16.003906 7.300781 16.738281 7.621094 17.328125 8.105469 L 17.0625 8.371094 C 16.90625 8.527344 16.90625 8.78125 17.0625 8.9375 C 17.140625 9.015625 17.242188 9.054688 17.34375 9.054688 C 17.449219 9.054688 17.550781 9.015625 17.628906 8.9375 L 17.894531 8.671875 C 18.378906 9.261719 18.699219 9.996094 18.78125 10.800781 L 18.398438 10.800781 C 18.179688 10.800781 18 10.980469 18 11.199219 C 18 11.421875 18.179688 11.601562 18.398438 11.601562 Z M 18.398438 11.601562"/>
    <path d="M14.800781 9.601562C13.917969 9.601562 13.199219 10.316406 13.199219 11.199219 13.199219 12.082031 13.917969 12.800781 14.800781 12.800781 15.683594 12.800781 16.398438 12.082031 16.398438 11.199219 16.398438 10.316406 15.683594 9.601562 14.800781 9.601562zM14.800781 12C14.359375 12 14 11.640625 14 11.199219 14 10.757812 14.359375 10.398438 14.800781 10.398438 15.242188 10.398438 15.601562 10.757812 15.601562 11.199219 15.601562 11.640625 15.242188 12 14.800781 12zM6.398438 7.199219C6.179688 7.199219 6 7.378906 6 7.601562L6 8C5.777344 8 5.601562 8.179688 5.601562 8.398438 5.601562 8.621094 5.777344 8.800781 6 8.800781L6 14.398438C5.777344 14.398438 5.601562 14.578125 5.601562 14.800781 5.601562 15.019531 5.777344 15.199219 6 15.199219L6 15.601562C6 15.820312 6.179688 16 6.398438 16 6.621094 16 6.800781 15.820312 6.800781 15.601562L6.800781 7.601562C6.800781 7.378906 6.621094 7.199219 6.398438 7.199219zM5.199219 8.398438C5.199219 8.179688 5.019531 8 4.800781 8L4.800781 7.601562C4.800781 7.378906 4.621094 7.199219 4.398438 7.199219 4.179688 7.199219 4 7.378906 4 7.601562L4 15.601562C4 15.820312 4.179688 16 4.398438 16 4.621094 16 4.800781 15.820312 4.800781 15.601562L4.800781 15.199219C5.019531 15.199219 5.199219 15.019531 5.199219 14.800781 5.199219 14.578125 5.019531 14.398438 4.800781 14.398438L4.800781 8.800781C5.019531 8.800781 5.199219 8.621094 5.199219 8.398438zM5.199219 8.398438"/>
</svg>

<svg xmlns="http://www.w3.org/2000/svg" width="32" height="32" viewBox="0 0 24 24">
    <path d="M24 1.602H0V20.8h.8v1.597h4v-1.597h14.4v1.597h4v-1.597h.8zm-20 20H1.602V20.8H4zm18.398 0H20V20.8h2.398zM23.2 20H.801V2.398h22.398zm0 0"/>
    <path d="M2.402 19.2h19.196c.441 0 .8-.36.8-.802V17.2a.401.401 0 1 0 0-.8V16a.401.401 0 1 0 0-.8v-8a.401.401 0 1 0 0-.802V6a.401.401 0 1 0 0-.8V4.003a.803.803 0 0 0-.8-.805H2.402c-.441 0-.8.36-.8.805v14.394c0 .442.359.801.8.801zm0-15.2l19.2.004v1.195h-.403a.401.401 0 0 0 0 .801h.399v.398h-.399a.401.401 0 0 0 0 .801h.399v8h-.399a.401.401 0 0 0 0 .801h.399v.398h-.399a.401.401 0 0 0 0 .801h.399v1.2h-19.2zm0 0"/>
    <path d="M18.203 7.816c-.004-.003-.004-.007-.008-.011-.004-.004-.008-.004-.011-.008a4.795 4.795 0 0 0-6.766 0c-.004.004-.008.004-.012.008s-.004.008-.008.011a4.795 4.795 0 0 0 0 6.766c.004.004.004.008.008.012s.008.004.012.008a4.795 4.795 0 0 0 6.766 0c.003-.004.007-.004.011-.008.004-.004.004-.008.008-.012a4.795 4.795 0 0 0 0-6.766zm.195 3.786h.383a4.015 4.015 0 0 1-.886 2.128l-.266-.27a.4.4 0 0 0-.567.567l.266.27c-.59.484-1.324.8-2.129.883v-.38a.401.401 0 1 0-.8 0v.38a4.01 4.01 0 0 1-2.13-.883l.27-.27a.4.4 0 0 0-.566-.566l-.27.27a4.01 4.01 0 0 1-.883-2.13h.38a.401.401 0 0 0 0-.8h-.38c.082-.805.399-1.54.883-2.13l.27.267c.078.078.18.117.28.117a.4.4 0 0 0 .285-.684l-.268-.266a4.015 4.015 0 0 1 2.128-.886v.383a.401.401 0 0 0 .801 0v-.383a3.99 3.99 0 0 1 2.13.886l-.267.266a.4.4 0 0 0 .567.566l.266-.265a3.99 3.99 0 0 1 .886 2.129h-.383a.4.4 0 0 0 0 .8zm0 0"/>
    <path d="M14.8 9.602a1.6 1.6 0 0 0-1.6 1.597c0 .883.718 1.602 1.6 1.602a1.6 1.6 0 0 0 0-3.2zm0 2.398a.802.802 0 0 1 0-1.602.802.802 0 0 1 0 1.602zm0 0M6.398 7.2A.401.401 0 0 0 6 7.601V8a.398.398 0 0 0-.398.398c0 .223.175.403.398.403v5.597a.398.398 0 0 0-.398.403c0 .219.175.398.398.398v.403a.4.4 0 0 0 .8 0v-8a.402.402 0 0 0-.402-.403zm0 0M5.2 8.398A.4.4 0 0 0 4.8 8v-.398a.401.401 0 0 0-.8 0v8a.4.4 0 0 0 .8 0v-.403a.4.4 0 0 0 0-.8V8.8c.22 0 .4-.18.4-.403zm0 0"/>
</svg>
